Yaru++/apps/scalable/astah_uml.svg

<svg enable-background="new" height="256" viewBox="0 0 256 256" width="256" xmlns="http://www.w3.org/2000/svg" xmlns:xlink="http://www.w3.org/1999/xlink">
  <linearGradient id="linearGradient1694" gradientTransform="matrix(0 1 -1 0 285.88052 -24.82284)" gradientUnits="userSpaceOnUse" x1="39.997" x2="263.997" y1="156" y2="156">
    <stop offset="0" stop-color="#5884f4"/>
    <stop offset="1" stop-color="#80a3fa"/>
  </linearGradient>
  <linearGradient id="linearGradient4358" gradientUnits="userSpaceOnUse" x1="88" x2="488" y1="88" y2="488">
    <stop offset="0" stop-opacity=".588235"/>
    <stop offset="1" stop-opacity=".205556"/>
  </linearGradient>
  <filter id="filter4380" color-interpolation-filters="sRGB" height="1.088" width="1.106" x="-.05" y="-.04">
    <feGaussianBlur stdDeviation="8.48"/>
  </filter>
  <filter id="filter4346" color-interpolation-filters="sRGB" height="1.022" width="1.026" x="-.01" y="-.01">
    <feGaussianBlur stdDeviation="2.12"/>
  </filter>
  <path d="m141.84323 74c-70.59344 0-78.18921 7.250835-77.84323 77.98706v146.01294 146.01294c-.34598 70.73623 7.24979 77.98706 77.84323 77.98706h292.31354c70.59344 0 79.78033-7.27652 77.84323-77.98706v-146.01294-146.01294c0-70.737067-7.24979-77.98706-77.84323-77.98706z" filter="url(#filter4346)" opacity=".1" transform="matrix(.5 0 0 .5 -14.116488 -20.825537)"/>
  <path d="m141.84323 74c-70.59344 0-78.18921 7.250835-77.84323 77.98706v146.01294 146.01294c-.34598 70.73623 7.24979 77.98706 77.84323 77.98706h292.31354c70.59344 0 79.78033-7.27652 77.84323-77.98706v-146.01294-146.01294c0-70.737067-7.24979-77.98706-77.84323-77.98706z" fill="url(#linearGradient4358)" filter="url(#filter4380)" opacity=".3" transform="matrix(.5 0 0 .5 -14.116488 -20.825235)"/>
  <path d="m55.695112 13.174464c-36.098811 0-39.983002 3.69016-39.80608 39.689839v74.310167 74.31016c-.176922 35.99969 3.707269 39.68984 39.80608 39.68984h148.387318c36.09881 0 40.77464-3.70276 39.80608-39.68984v-74.31016-74.310167c0-36.000109-3.70727-39.689839-39.80608-39.689839z" opacity=".1"/>
  <path d="m202.95648 15.17446c35.29673 0 39.09461 3.62542 38.92162 38.993529v73.006471 73.00648c.17299 35.36812-3.62489 38.99353-38.92162 38.99353h-146.15675c-35.29671 0-38.921609-3.625-38.921609-38.99353v-73.00648-73.006471c0-35.368529 3.624899-38.993529 38.921609-38.993529z" fill="url(#linearGradient1694)"/>
  <g fill="#fff">
    <path d="m17.877654 127.17477v8 65.00586c0 35.36853 3.625164 38.99414 38.921874 38.99414h146.156252c35.29673 0 39.09486-3.62602 38.92187-38.99414v-65.00586-8z" opacity=".05"/>
    <path d="m812.20261 1309.7929c-27.70079 0-55.72369 7.4083-74.72772 20.9366l18.03773 35.1092c12.56198-9.9852 31.56602-16.1051 49.92584-16.1051 27.05659 0 42.19199 14.4169 42.19199 35.9977l-50.00981-.2354c-52.82417-.2486-74.40225 26.624-74.40225 57.2238 0 29.9555 22.04572 51.6578 62.6306 51.6578 25.44607 0 52.4405-7.5298 61.78146-23.3128l.003 21.3432 53.33034-.01-.006-104.013c-.003-52.5026-35.93005-78.5921-88.75482-78.5921zm-11.67969 151.6087c-17.71562 0-28.34499-8.3747-28.34499-20.9367 0-11.5956 7.40547-23.1197 30.91845-22.9689l44.53407.2354.003 16.1495c.003 16.8142-30.36157 27.5207-47.11089 27.5207z" transform="matrix(.57040043254 0 0 .57040043254 -384.73698113293 -627.74229612735)"/>
    <path d="m17.878906 69.361328v17.601563c6.482415 1.835794 14.330644 3.915293 20.189453 4.992187 12.731898 2.34022 36.859375 2.455078 36.859375 2.455078l.246094-16.84375s-25.55513-.619866-34.0625-2.183594c-6.532161-1.200666-16.51154-4.051037-23.232422-6.021484z" stroke-width="2.10603" transform="matrix(.99999999603 0 0 .99999999603 .00000086851 -.00000311627)"/>
    <path d="m119.22656 15.173828h-16.91992c-.59948 2.28582-1.08558 3.998257-2.17187 8.738281-1.622195 7.078345-3.37725 14.638704-3.347661 21.019532.027589 5.96396 1.520694 12.498126 2.898438 18.216797 1.377743 5.718649 2.751953 10.328124 2.751953 10.328124l16.14844-4.808593s-1.2577-4.223157-2.52149-9.46875c-1.26376-5.245594-2.41791-11.802125-2.42968-14.345703-.01053-2.126753 1.38374-10.474727 2.91992-17.177735 1.53616-6.703008 3.08203-12.390625 3.08203-12.390625z" stroke-width="2.10603" transform="matrix(.99999999603 0 0 .99999999603 .00000086851 -.00000311627)"/>
    <path d="m241.87891 73.707031v-16.917969c-.74622.064191-10.24243.879854-21.10352 1.921876-5.63961.541081-11.43864 1.124355-16.19922 1.662109-4.76057.537732-7.53045.714096-10.72656 1.566406-2.16601.5776-5.25551 1.646931-9.84375 3.212891-4.58824 1.565959-10.20513 3.520108-15.66406 5.429687-10.91787 3.81918-26.50782 10.117188-26.50782 10.117188l12.92383 11.572265s8.27146-1.983577 19.14453-5.787109c5.43655-1.901745 11.02945-3.843636 15.54493-5.384766 4.51549-1.541108 8.42448-2.793675 8.74414-2.878906-.71047.189543 3.68561-.58877 8.27734-1.107422 4.59173-.518673 10.33069-1.092858 15.91797-1.628906 10.01547-.960893 17.62254-1.615267 19.49219-1.777344z" stroke-width="2.10603" transform="matrix(.99999999603 0 0 .99999999603 .00000086851 -.00000311627)"/>
    <path d="m236.01758 232.57227c.5373-.5744 1.05546-1.16781 1.50195-1.84375.53566-.81095 1.00851-1.69828 1.42578-2.66797.83454-1.93939 1.44706-4.20848 1.88867-6.86524.44162-2.65676.71291-5.69962.86914-9.18359.09498-2.11788.08597-4.73522.10743-7.19141-2.69911-4.06715-5.29956-8.12768-12.10938-17.67578-9.50209-13.32291-20.74423-28.42778-30.43555-37.5625-18.40581-17.34873-54.29492-39.68555-54.29492-39.68555l-14.89258 14.48829s40.00053 26.62842 54.74219 40.52343c6.88242 6.48716 18.50985 21.5358 27.73242 34.4668 8.14354 11.4181 20.18754 28.54092 23.46485 33.19727z" stroke-width="2.10603" transform="matrix(.99999999603 0 0 .99999999603 .00000086851 -.00000311627)"/>
    <path d="m56.805392 15.174464c-35.296728 0-39.094869 3.62603-38.921879 38.994139v2c-.17299-35.368109 3.625151-38.994139 38.921879-38.994139h146.156238c35.29673 0 38.92188 3.62561 38.92188 38.994139v-2c0-35.368529-3.62515-38.994139-38.92188-38.994139z" opacity=".3"/>
  </g>
  <path d="m56.810792 239.17447c-35.296731 0-39.094874-3.62603-38.921884-38.99414v-2c-.17299 35.36811 3.625153 38.99414 38.921884 38.99414h146.156238c35.29673 0 38.92188-3.62561 38.92188-38.99414v2c0 35.36853-3.62515 38.99414-38.92188 38.99414z" opacity=".2"/>
</svg>

<?xml version="1.0" encoding="UTF-8" standalone="no"?>
<svg
   xmlns:dc="http://purl.org/dc/elements/1.1/"
   xmlns:cc="http://creativecommons.org/ns#"
   xmlns:rdf="http://www.w3.org/1999/02/22-rdf-syntax-ns#"
   xmlns:svg="http://www.w3.org/2000/svg"
   xmlns="http://www.w3.org/2000/svg"
   xmlns:xlink="http://www.w3.org/1999/xlink"
   xmlns:sodipodi="http://sodipodi.sourceforge.net/DTD/sodipodi-0.dtd"
   xmlns:inkscape="http://www.inkscape.org/namespaces/inkscape"
   style="enable-background:new"
   width="256"
   height="256"
   version="1.0"
   viewBox="0 0 256 256"
   id="svg80"
   sodipodi:docname="session-properties.svg"
   inkscape:version="0.92.4 (5da689c313, 2019-01-14)">
  <metadata
     id="metadata84">
    <rdf:RDF>
      <cc:Work
         rdf:about="">
        <dc:format>image/svg+xml</dc:format>
        <dc:type
           rdf:resource="http://purl.org/dc/dcmitype/StillImage" />
        <dc:title>
  Adwaita Icon Template
 </dc:title>
      </cc:Work>
    </rdf:RDF>
  </metadata>
  <sodipodi:namedview
     pagecolor="#ffffff"
     bordercolor="#666666"
     borderopacity="1"
     objecttolerance="10"
     gridtolerance="10"
     guidetolerance="10"
     inkscape:pageopacity="0"
     inkscape:pageshadow="2"
     inkscape:window-width="1920"
     inkscape:window-height="1016"
     id="namedview82"
     showgrid="false"
     inkscape:zoom="3.4425878"
     inkscape:cx="130.24947"
     inkscape:cy="138.54839"
     inkscape:window-x="0"
     inkscape:window-y="27"
     inkscape:window-maximized="1"
     inkscape:current-layer="g973" />
  <title
     id="title4162">
  Adwaita Icon Template
 </title>
  <defs
     id="defs56">
    <linearGradient
       id="linearGradient1078">
      <stop
         id="stop1066"
         offset="0"
         style="stop-color:#77767b" />
      <stop
         style="stop-color:#c0bfbc"
         id="stop1068"
         offset=".036" />
      <stop
         id="stop1070"
         offset=".071"
         style="stop-color:#9a9996" />
      <stop
         style="stop-color:#9a9996"
         id="stop1072"
         offset=".929" />
      <stop
         id="stop1074"
         offset=".964"
         style="stop-color:#c0bfbc" />
      <stop
         id="stop1076"
         offset="1"
         style="stop-color:#77767b" />
    </linearGradient>
    <linearGradient
       id="linearGradient1044">
      <stop
         style="stop-color:#1a5fb4"
         id="stop1040"
         offset="0" />
      <stop
         style="stop-color:#98c1f1;stop-opacity:0"
         id="stop1042"
         offset="1" />
    </linearGradient>
    <linearGradient
       id="linearGradient1034">
      <stop
         id="stop1030"
         offset="0"
         style="stop-color:#98c1f1" />
      <stop
         id="stop1032"
         offset="1"
         style="stop-color:#2dc0af;stop-opacity:0.13779527" />
    </linearGradient>
    <linearGradient
       id="linearGradient6826">
      <stop
         style="stop-color:#50dbb5"
         id="stop6822"
         offset="0" />
      <stop
         style="stop-color:#4a86cf"
         id="stop6824"
         offset="1" />
    </linearGradient>
    <radialGradient
       id="radialGradient1018"
       cx="106.667"
       cy="-60.348"
       r="225"
       fx="106.667"
       fy="-60.348"
       gradientTransform="matrix(0.21428571,0,0,0.32237036,9.1428574,245.58768)"
       gradientUnits="userSpaceOnUse"
       xlink:href="#linearGradient6826" />
    <radialGradient
       id="radialGradient1020"
       cx="276.588"
       cy="218.278"
       r="225"
       fx="276.588"
       fy="218.278"
       gradientTransform="matrix(0.38857143,0,0,0.52385183,-35.474283,148.05445)"
       gradientUnits="userSpaceOnUse"
       xlink:href="#linearGradient1034" />
    <radialGradient
       id="radialGradient1038"
       cx="317.765"
       cy="86.748"
       r="225"
       fx="317.765"
       fy="86.748"
       gradientTransform="matrix(0.38857143,0,0,0.2757274,-35.474283,-281.78533)"
       gradientUnits="userSpaceOnUse"
       xlink:href="#linearGradient1044" />
    <linearGradient
       id="linearGradient1064"
       x1="88.596"
       x2="536.596"
       y1="-449.394"
       y2="-449.394"
       gradientTransform="matrix(0.25,0,0,0.25,-14.148972,400.3485)"
       gradientUnits="userSpaceOnUse"
       xlink:href="#linearGradient1078" />
    <filter
       style="color-interpolation-filters:sRGB"
       id="filter4569"
       width="1.023"
       height="1.025"
       x="-.01"
       y="-.01">
      <feGaussianBlur
         id="feGaussianBlur2"
         stdDeviation="1.16" />
    </filter>
    <filter
       style="color-interpolation-filters:sRGB"
       id="filter989"
       width="1.046"
       height="1.05"
       x="-.02"
       y="-.03">
      <feGaussianBlur
         id="feGaussianBlur10"
         stdDeviation="2.32" />
    </filter>
    <linearGradient
       id="linearGradient1048"
       x1="24"
       x2="280"
       y1="28"
       y2="284"
       gradientTransform="translate(-26.432006,16.431991)"
       gradientUnits="userSpaceOnUse">
      <stop
         id="stop5"
         offset="0"
         style="stop-color:#325fd1" />
      <stop
         id="stop7"
         offset="1"
         style="stop-color:#6e98ff" />
    </linearGradient>
    <linearGradient
       id="linearGradient1108"
       x1="296"
       x2="296"
       y1="-212"
       y2="236"
       gradientUnits="userSpaceOnUse">
      <stop
         id="stop13"
         offset="0"
         style="stop-color:#ffffff" />
      <stop
         id="stop15"
         offset=".125"
         style="stop-color:#ffffff;stop-opacity:.09803922" />
      <stop
         id="stop17"
         offset=".925"
         style="stop-color:#000000;stop-opacity:.09803922" />
      <stop
         id="stop19"
         offset="1"
         style="stop-color:#000000;stop-opacity:.49803922" />
    </linearGradient>
    <clipPath
       id="clipPath1082-3">
      <path
         style="fill:#8c59d9"
         d="M 361.9375,-212 C 507.2348,-212 528,-191.28677 528,-46.125 V 70.125 C 528,215.28618 507.2348,236 361.9375,236 H 214.0625 C 68.7652,236 48,215.28618 48,70.125 V -46.125 C 48,-191.28677 68.7652,-212 214.0625,-212 Z"
         id="path35" />
    </clipPath>
    <filter
       id="filter153"
       width="1.09"
       height="1.103"
       x="-.04"
       y="-.05"
       style="color-interpolation-filters:sRGB">
      <feGaussianBlur
         id="feGaussianBlur25"
         stdDeviation="3.011" />
    </filter>
    <filter
       style="color-interpolation-filters:sRGB"
       id="filter927"
       width="1.111"
       height="1.13"
       x="-.06"
       y="-.07">
      <feGaussianBlur
         id="feGaussianBlur929"
         stdDeviation="2.6" />
    </filter>
    <filter
       style="color-interpolation-filters:sRGB"
       id="filter941"
       width="1.045"
       height="1.052"
       x="-.02"
       y="-.03">
      <feGaussianBlur
         id="feGaussianBlur943"
         stdDeviation="1.04" />
    </filter>
    <linearGradient
       id="linearGradient1694"
       x1="39.997"
       x2="263.997"
       y1="156"
       y2="156"
       gradientTransform="rotate(90,155.35168,130.52884)"
       gradientUnits="userSpaceOnUse"
       xlink:href="#linearGradient4338-7" />
    <linearGradient
       id="linearGradient4338-7">
      <stop
         id="stop4342-6"
         offset="0"
         style="stop-color:#5884f4" />
      <stop
         id="stop4340-2"
         offset="1"
         style="stop-color:#80a3fa" />
    </linearGradient>
    <linearGradient
       id="linearGradient4358"
       x1="88"
       x2="488"
       y1="88"
       y2="488"
       gradientUnits="userSpaceOnUse"
       xlink:href="#linearGradient4360" />
    <linearGradient
       id="linearGradient4360">
      <stop
         id="stop4362"
         offset="0"
         style="stop-color:#000000;stop-opacity:0.58823532" />
      <stop
         id="stop4366"
         offset="1"
         style="stop-color:#000000;stop-opacity:0.20555556" />
    </linearGradient>
    <filter
       style="color-interpolation-filters:sRGB"
       id="filter4380"
       width="1.106"
       height="1.088"
       x="-.05"
       y="-.04">
      <feGaussianBlur
         id="feGaussianBlur4382"
         stdDeviation="8.48" />
    </filter>
    <filter
       style="color-interpolation-filters:sRGB"
       id="filter4346"
       width="1.026"
       height="1.022"
       x="-.01"
       y="-.01">
      <feGaussianBlur
         id="feGaussianBlur4348"
         stdDeviation="2.12" />
    </filter>
    <linearGradient
       id="a">
      <stop
         stop-color="#68676b"
         offset="0"
         id="stop2" />
      <stop
         stop-color="#424048"
         offset=".8"
         id="stop4" />
      <stop
         stop-color="#241f31"
         offset="1"
         id="stop6" />
    </linearGradient>
    <radialGradient
       xlink:href="#a"
       gradientUnits="userSpaceOnUse"
       gradientTransform="matrix(1.34416 .0006 -.00062 1.38763 -121.22 -718.103)"
       fy="446.483"
       fx="279.422"
       r="224"
       cy="446.483"
       cx="279.422"
       id="d" />
    <linearGradient
       xlink:href="#b"
       gradientUnits="userSpaceOnUse"
       gradientTransform="matrix(1.0015,0,0,0.99993,72.09,56.015)"
       y2="234"
       y1="234"
       x2="-60"
       x1="43.844"
       id="e" />
    <linearGradient
       id="b">
      <stop
         stop-color="#d5d3cf"
         offset="0"
         id="stop11" />
      <stop
         stop-color="#e3e2df"
         offset=".038"
         id="stop13-3" />
      <stop
         stop-color="#c0bfbc"
         offset=".077"
         id="stop15-6" />
      <stop
         stop-color="#c0bfbc"
         offset=".923"
         id="stop17-7" />
      <stop
         stop-color="#e3e2df"
         offset=".962"
         id="stop19-5" />
      <stop
         stop-color="#d5d3cf"
         offset="1"
         id="stop21" />
    </linearGradient>
  </defs>
  <path
     style="opacity:0.1;filter:url(#filter4346)"
     d="M 141.84323,74 C 71.24979,74 63.65402,81.250835 64,151.98706 V 298 444.01294 C 63.65402,514.74917 71.24979,522 141.84323,522 H 434.15677 C 504.75021,522 513.9371,514.72348 512,444.01294 V 298 151.98706 C 512,81.249993 504.75021,74 434.15677,74 Z"
     transform="matrix(0.5,0,0,0.5,-14.116488,-20.825537)"
     id="path58" />
  <path
     d="M 141.84323,74 C 71.24979,74 63.65402,81.250835 64,151.98706 V 298 444.01294 C 63.65402,514.74917 71.24979,522 141.84323,522 H 434.15677 C 504.75021,522 513.9371,514.72348 512,444.01294 V 298 151.98706 C 512,81.249993 504.75021,74 434.15677,74 Z"
     transform="matrix(0.5,0,0,0.5,-14.116488,-20.825235)"
     style="opacity:0.3;fill:url(#linearGradient4358);filter:url(#filter4380)"
     id="path60" />
  <path
     style="opacity:0.1"
     d="m 55.695112,13.174464 c -36.098811,0 -39.983002,3.69016 -39.80608,39.689839 v 74.310167 74.31016 c -0.176922,35.99969 3.707269,39.68984 39.80608,39.68984 H 204.08243 c 36.09881,0 40.77464,-3.70276 39.80608,-39.68984 V 127.17447 52.864303 c 0,-36.000109 -3.70727,-39.689839 -39.80608,-39.689839 z"
     id="path62" />
  <path
     style="fill:url(#linearGradient1694)"
     d="m 202.95648,15.17446 c 35.29673,0 39.09461,3.62542 38.92162,38.993529 v 73.006471 73.00648 c 0.17299,35.36812 -3.62489,38.99353 -38.92162,38.99353 H 56.79973 c -35.29671,0 -38.921609,-3.625 -38.921609,-38.99353 V 127.17446 54.167989 c 0,-35.368529 3.624899,-38.993529 38.921609,-38.993529 z"
     id="path64" />
  <path
     style="opacity:0.05;fill:#ffffff"
     d="m 17.877654,127.17477 v 8 65.00586 c 0,35.36853 3.625164,38.99414 38.921874,38.99414 H 202.95578 c 35.29673,0 39.09486,-3.62602 38.92187,-38.99414 v -65.00586 -8 z"
     id="path66" />
  <g
     id="g973"
     transform="matrix(2.1060297,0,0,2.1060297,677.28536,429.74892)">
    <g
       id="g936"
       transform="translate(0,-172)">
      <g
         id="g1023"
         transform="translate(-11.035181,-155.57559)">
        <g
           style="font-weight:bold;font-size:322.10223389px;line-height:1.25;font-family:Montserrat;letter-spacing:0px;word-spacing:0px;fill:#ffffff;enable-background:new"
           transform="matrix(0.27084159,0,0,0.27084159,-493.24182,-174.54991)"
           id="g916">
          <path
             inkscape:connector-curvature="0"
             style="fill:#ffffff"
             d="m 812.20261,1309.7929 c -27.70079,0 -55.72369,7.4083 -74.72772,20.9366 l 18.03773,35.1092 c 12.56198,-9.9852 31.56602,-16.1051 49.92584,-16.1051 27.05659,0 42.19199,14.4169 42.19199,35.9977 l -50.00981,-0.2354 c -52.82417,-0.2486 -74.40225,26.624 -74.40225,57.2238 0,29.9555 22.04572,51.6578 62.6306,51.6578 25.44607,0 52.4405,-7.5298 61.78146,-23.3128 l 0.003,21.3432 53.33034,-0.01 -0.006,-104.013 c -0.003,-52.5026 -35.93005,-78.5921 -88.75482,-78.5921 z m -11.67969,151.6087 c -17.71562,0 -28.34499,-8.3747 -28.34499,-20.9367 0,-11.5956 7.40547,-23.1197 30.91845,-22.9689 l 44.53407,0.2354 0.003,16.1495 c 0.003,16.8142 -30.36157,27.5207 -47.11089,27.5207 z"
             id="path914" />
        </g>
        <path
           style="fill:#ffffff;stroke-width:2.10602975"
           d="M 17.878906 69.361328 L 17.878906 86.962891 C 24.361321 88.798685 32.20955 90.878184 38.068359 91.955078 C 50.800257 94.295298 74.927734 94.410156 74.927734 94.410156 L 75.173828 77.566406 C 75.173828 77.566406 49.618698 76.94654 41.111328 75.382812 C 34.579167 74.182146 24.599788 71.331775 17.878906 69.361328 z "
           id="path918"
           transform="matrix(0.47482711,0,0,0.47482711,-310.55827,123.51915)" />
        <path
           style="fill:#ffffff;stroke-width:2.10602975"
           d="M 119.22656 15.173828 L 102.30664 15.173828 C 101.70716 17.459648 101.22106 19.172085 100.13477 23.912109 C 98.512575 30.990454 96.75752 38.550813 96.787109 44.931641 C 96.814698 50.895601 98.307803 57.429767 99.685547 63.148438 C 101.06329 68.867087 102.4375 73.476562 102.4375 73.476562 L 118.58594 68.667969 C 118.58594 68.667969 117.32824 64.444812 116.06445 59.199219 C 114.80069 53.953625 113.64654 47.397094 113.63477 44.853516 C 113.62424 42.726763 115.01851 34.378789 116.55469 27.675781 C 118.09085 20.972773 119.63672 15.285156 119.63672 15.285156 L 119.22656 15.173828 z "
           id="path1037"
           transform="matrix(0.47482711,0,0,0.47482711,-310.55827,123.51915)" />
        <path
           style="fill:#ffffff;stroke-width:2.10602975"
           d="M 241.87891 73.707031 L 241.87891 56.789062 C 241.13269 56.853253 231.63648 57.668916 220.77539 58.710938 C 215.13578 59.252019 209.33675 59.835293 204.57617 60.373047 C 199.8156 60.910779 197.04572 61.087143 193.84961 61.939453 C 191.6836 62.517053 188.5941 63.586384 184.00586 65.152344 C 179.41762 66.718303 173.80073 68.672452 168.3418 70.582031 C 157.42393 74.401211 141.83398 80.699219 141.83398 80.699219 L 154.75781 92.271484 C 154.75781 92.271484 163.02927 90.287907 173.90234 86.484375 C 179.33889 84.58263 184.93179 82.640739 189.44727 81.099609 C 193.96276 79.558501 197.87175 78.305934 198.19141 78.220703 C 197.48094 78.410246 201.87702 77.631933 206.46875 77.113281 C 211.06048 76.594608 216.79944 76.020423 222.38672 75.484375 C 232.40219 74.523482 240.00926 73.869108 241.87891 73.707031 z "
           id="path922"
           transform="matrix(0.47482711,0,0,0.47482711,-310.55827,123.51915)" />
        <path
           style="fill:#ffffff;stroke-width:2.10602975"
           d="M 236.01758 232.57227 C 236.55488 231.99787 237.07304 231.40446 237.51953 230.72852 C 238.05519 229.91757 238.52804 229.03024 238.94531 228.06055 C 239.77985 226.12116 240.39237 223.85207 240.83398 221.19531 C 241.2756 218.53855 241.54689 215.49569 241.70312 212.01172 C 241.7981 209.89384 241.78909 207.2765 241.81055 204.82031 C 239.11144 200.75316 236.51099 196.69263 229.70117 187.14453 C 220.19908 173.82162 208.95694 158.71675 199.26562 149.58203 C 180.85981 132.2333 144.9707 109.89648 144.9707 109.89648 L 130.07812 124.38477 C 130.07812 124.38477 170.07865 151.01319 184.82031 164.9082 C 191.70273 171.39536 203.33016 186.444 212.55273 199.375 C 220.69627 210.7931 232.74027 227.91592 236.01758 232.57227 z "
           id="path924"
           transform="matrix(0.47482711,0,0,0.47482711,-310.55827,123.51915)" />
      </g>
    </g>
  </g>
  <path
     style="opacity:0.3;fill:#ffffff"
     d="m 56.805392,15.174464 c -35.296728,0 -39.094869,3.62603 -38.921879,38.994139 v 2 C 17.710523,20.800494 21.508664,17.174464 56.805392,17.174464 H 202.96163 c 35.29673,0 38.92188,3.62561 38.92188,38.994139 v -2 c 0,-35.368529 -3.62515,-38.994139 -38.92188,-38.994139 z"
     id="path76" />
  <path
     style="opacity:0.2"
     d="m 56.810792,239.17447 c -35.296731,0 -39.094874,-3.62603 -38.921884,-38.99414 v -2 c -0.17299,35.36811 3.625153,38.99414 38.921884,38.99414 H 202.96703 c 35.29673,0 38.92188,-3.62561 38.92188,-38.99414 v 2 c 0,35.36853 -3.62515,38.99414 -38.92188,38.99414 z"
     id="path78" />
</svg>
